X: 18892
T: In The Toyshop
R: barndance
M: 4/4
K: Gmajor
B>c|d2 d>B g2g>B|d2 d4 G>A|B2 B2 e2 e2|d6 f>e|
d2 A2 A2 f>e|d2 A2 A4|d2 dd c2 A2|B6 B>c|
d2 d>B g2 g>B|d2d4 G>A|B2 B2 e2 e2|d6 f>e|
d2 A2 A2 f>e|d2 A2 A4|d2 dd e2 f2|g4 =f4||
e2e>^d e2e>^d|e>^de>(a a)>gf>e|d2 d2 d>c B>c|d6 B2|
e2e>^d e2e>^d|e>^de>(a a)>gf>e|d2d2e2 ^e2|f6 B>c|
d2 d>B g2 g>B|d2d4 G>A|B2 B2 e2 e2|d6 f>e|
d2 A2 A2 f>e|d2 A2 A4|d2 dd e2 f2|g6||

